public/images/icons/selenium.svg

<?xml version="1.0" encoding="UTF-8" standalone="no"?>
<svg id="selenium_webdriver" data-name="Selenium WebDriver" viewBox="0 0 60.000001 60" version="1.1" sodipodi:docname="selenium.svg" inkscape:version="1.4.2 (unknown)" width="60" height="60" xmlns:inkscape="http://www.inkscape.org/namespaces/inkscape" xmlns:sodipodi="http://sodipodi.sourceforge.net/DTD/sodipodi-0.dtd" xmlns="http://www.w3.org/2000/svg" xmlns:svg="http://www.w3.org/2000/svg" xmlns:rdf="http://www.w3.org/1999/02/22-rdf-syntax-ns#" xmlns:cc="http://creativecommons.org/ns#" xmlns:dc="http://purl.org/dc/elements/1.1/">
  <sodipodi:namedview id="namedview2" pagecolor="#505050" bordercolor="#eeeeee" borderopacity="1" inkscape:showpageshadow="0" inkscape:pageopacity="0" inkscape:pagecheckerboard="0" inkscape:deskcolor="#d1d1d1" inkscape:zoom="5.886664" inkscape:cx="16.22311" inkscape:cy="35.334104" inkscape:window-width="1920" inkscape:window-height="981" inkscape:window-x="0" inkscape:window-y="0" inkscape:window-maximized="1" inkscape:current-layer="selenium_webdriver" />
  <defs id="defs1">
    <style id="style1">.cls-selenium_webdriver{fill:#cf0a2c;}</style>
  </defs>
  <title id="title1">Selenium WebDriver</title>
  <path class="cls-selenium_webdriver" d="m 37.86,38 a 4.4,4.4 0 0 0 -4.51,3.91 0.15,0.15 0 0 0 0.15,0.17 h 8.73 a 0.15,0.15 0 0 0 0.15,-0.16 4.25,4.25 0 0 0 -4.52,-3.92 z" id="path1" style="fill:#01a71c;fill-opacity:1" />
  <path class="cls-selenium_webdriver" d="m 56.58,8.66 -18.58,20.82 a 0.57,0.57 0 0 1 -0.83,0 l -9.46,-9.75 a 0.57,0.57 0 0 1 -0.06,-0.71 l 3.13,-4 a 0.57,0.57 0 0 1 0.91,-0.05 l 5.31,5.85 a 0.57,0.57 0 0 0 0.86,0 l 14.85,-20.19 a 0.4,0.4 0 0 0 -0.32,-0.63 h -51.95 a 0.44,0.44 0 0 0 -0.44,0.44 v 59.12 a 0.44,0.44 0 0 0 0.44,0.44 h 56.4 a 0.44,0.44 0 0 0 0.44,-0.44 v -50.63 a 0.4,0.4 0 0 0 -0.7,-0.27 z m -40.58,44.76 a 14.26,14.26 0 0 1 -10.13,-3.6 0.55,0.55 0 0 1 -0.06,-0.72 l 2.19,-3.1 a 0.55,0.55 0 0 1 0.83,-0.08 10.85,10.85 0 0 0 7.42,2.9 c 2.89,0 4.31,-1.34 4.31,-2.75 0,-4.38 -14.25,-1.37 -14.25,-10.69 0,-4.12 3.56,-7.53 9.39,-7.53 a 13.91,13.91 0 0 1 9.25,3.15 0.55,0.55 0 0 1 0.07,0.75 l -2.26,3 a 0.55,0.55 0 0 1 -0.79,0.1 10.73,10.73 0 0 0 -6.77,-2.33 c -2.26,0 -3.53,1 -3.53,2.49 0,3.93 14.21,1.3 14.21,10.54 0.01,4.45 -3.22,7.87 -9.88,7.87 z m 31.1,-8.59 a 0.49,0.49 0 0 1 -0.49,0.49 h -13 a 0.15,0.15 0 0 0 -0.15,0.17 5,5 0 0 0 5.27,4.09 8.15,8.15 0 0 0 4.52,-1.49 0.48,0.48 0 0 1 0.7,0.11 l 1.58,2.32 a 0.49,0.49 0 0 1 -0.1,0.66 11.78,11.78 0 0 1 -7.23,2.25 c -5.6,0 -9.83,-3.77 -9.83,-9.67 a 9.36,9.36 0 0 1 9.52,-9.64 c 5.48,0 9.22,4.11 9.22,10.13 z" id="path2" style="fill:#01a71c;fill-opacity:1" transform="translate(1.3599813)" />
  <metadata id="metadata2">
    <rdf:RDF>
      <cc:Work rdf:about="">
        <dc:title>Selenium WebDriver</dc:title>
      </cc:Work>
    </rdf:RDF>
  </metadata>
  <path class="cls-selenium_webdriver" d="m 56.58,8.66 -18.58,20.82 a 0.57,0.57 0 0 1 -0.83,0 l -9.46,-9.75 a 0.57,0.57 0 0 1 -0.06,-0.71 l 3.13,-4 a 0.57,0.57 0 0 1 0.91,-0.05 l 5.31,5.85 a 0.57,0.57 0 0 0 0.86,0 l 14.85,-20.19 a 0.4,0.4 0 0 0 -0.32,-0.63 h -51.95 a 0.44,0.44 0 0 0 -0.44,0.44 v 59.12 a 0.44,0.44 0 0 0 0.44,0.44 h 56.4 a 0.44,0.44 0 0 0 0.44,-0.44 v -50.63 a 0.4,0.4 0 0 0 -0.7,-0.27 z m -40.58,44.76 a 14.26,14.26 0 0 1 -10.13,-3.6 0.55,0.55 0 0 1 -0.06,-0.72 l 2.19,-3.1 a 0.55,0.55 0 0 1 0.83,-0.08 10.85,10.85 0 0 0 7.42,2.9 c 2.89,0 4.31,-1.34 4.31,-2.75 0,-4.38 -14.25,-1.37 -14.25,-10.69 0,-4.12 3.56,-7.53 9.39,-7.53 a 13.91,13.91 0 0 1 9.25,3.15 0.55,0.55 0 0 1 0.07,0.75 l -2.26,3 a 0.55,0.55 0 0 1 -0.79,0.1 10.73,10.73 0 0 0 -6.77,-2.33 c -2.26,0 -3.53,1 -3.53,2.49 0,3.93 14.21,1.3 14.21,10.54 0.01,4.45 -3.22,7.87 -9.88,7.87 z m 31.1,-8.59 a 0.49,0.49 0 0 1 -0.49,0.49 h -13 a 0.15,0.15 0 0 0 -0.15,0.17 5,5 0 0 0 5.27,4.09 8.15,8.15 0 0 0 4.52,-1.49 0.48,0.48 0 0 1 0.7,0.11 l 1.58,2.32 a 0.49,0.49 0 0 1 -0.1,0.66 11.78,11.78 0 0 1 -7.23,2.25 c -5.6,0 -9.83,-3.77 -9.83,-9.67 a 9.36,9.36 0 0 1 9.52,-9.64 c 5.48,0 9.22,4.11 9.22,10.13 z" id="path3" style="fill:#01a71c;fill-opacity:1" transform="translate(1.3599813)" />
</svg>

<?xml version="1.0" encoding="UTF-8" standalone="no"?>
<svg id="selenium_webdriver" data-name="Selenium WebDriver" viewBox="0 0 57.28 60" version="1.1" sodipodi:docname="selenium.svg" inkscape:version="1.4 (unknown)" xmlns:inkscape="http://www.inkscape.org/namespaces/inkscape" xmlns:sodipodi="http://sodipodi.sourceforge.net/DTD/sodipodi-0.dtd" xmlns="http://www.w3.org/2000/svg" xmlns:svg="http://www.w3.org/2000/svg" xmlns:rdf="http://www.w3.org/1999/02/22-rdf-syntax-ns#" xmlns:cc="http://creativecommons.org/ns#" xmlns:dc="http://purl.org/dc/elements/1.1/">
  <sodipodi:namedview id="namedview2" pagecolor="#505050" bordercolor="#eeeeee" borderopacity="1" inkscape:showpageshadow="0" inkscape:pageopacity="0" inkscape:pagecheckerboard="0" inkscape:deskcolor="#d1d1d1" inkscape:zoom="5.886664" inkscape:cx="16.308048" inkscape:cy="35.334105" inkscape:window-width="1920" inkscape:window-height="981" inkscape:window-x="2560" inkscape:window-y="180" inkscape:window-maximized="1" inkscape:current-layer="selenium_webdriver" />
  <defs id="defs1">
    <style id="style1">.cls-selenium_webdriver{fill:#cf0a2c;}</style>
  </defs>
  <title id="title1">Selenium WebDriver</title>
  <path class="cls-selenium_webdriver" d="M37.86,38a4.4,4.4,0,0,0-4.51,3.91.15.15,0,0,0,.15.17h8.73a.15.15,0,0,0,.15-.16A4.25,4.25,0,0,0,37.86,38Z" id="path1" style="fill:#01a71c;fill-opacity:1" />
  <path class="cls-selenium_webdriver" d="M56.58,8.66,38,29.48a.57.57,0,0,1-.83,0l-9.46-9.75a.57.57,0,0,1-.06-.71l3.13-4a.57.57,0,0,1,.91-.05L37,20.82a.57.57,0,0,0,.86,0L52.71.63A.4.4,0,0,0,52.39,0H.44A.44.44,0,0,0,0,.44V59.56A.44.44,0,0,0,.44,60H56.84a.44.44,0,0,0,.44-.44V8.93A.4.4,0,0,0,56.58,8.66ZM16,53.42a14.26,14.26,0,0,1-10.13-3.6.55.55,0,0,1-.06-.72L8,46a.55.55,0,0,1,.83-.08,10.85,10.85,0,0,0,7.42,2.9c2.89,0,4.31-1.34,4.31-2.75,0-4.38-14.25-1.37-14.25-10.69,0-4.12,3.56-7.53,9.39-7.53A13.91,13.91,0,0,1,24.95,31a.55.55,0,0,1,.07.75l-2.26,3a.55.55,0,0,1-.79.1,10.73,10.73,0,0,0-6.77-2.33c-2.26,0-3.53,1-3.53,2.49,0,3.93,14.21,1.3,14.21,10.54C25.89,50,22.66,53.42,16,53.42Zm31.1-8.59a.49.49,0,0,1-.49.49h-13a.15.15,0,0,0-.15.17,5,5,0,0,0,5.27,4.09,8.15,8.15,0,0,0,4.52-1.49.48.48,0,0,1,.7.11l1.58,2.32a.49.49,0,0,1-.1.66,11.78,11.78,0,0,1-7.23,2.25c-5.6,0-9.83-3.77-9.83-9.67a9.36,9.36,0,0,1,9.52-9.64c5.48,0,9.22,4.11,9.22,10.13Z" id="path2" style="fill:#01a71c;fill-opacity:1" />
  <metadata id="metadata2">
    <rdf:RDF>
      <cc:Work rdf:about="">
        <dc:title>Selenium WebDriver</dc:title>
      </cc:Work>
    </rdf:RDF>
  </metadata>
</svg>
